svg/furkot/mapbox-maki/lighthouse.svg

<svg viewBox="0 0 512 512" xmlns="http://www.w3.org/2000/svg"><path d="m153.6 222.301-153.6 34.134v-17.068l153.6-34.133zm0-85.334-153.6-34.133v17.067l153.6 34.133zm204.8 0v17.067l153.6-34.133v-17.067zm0 85.334 153.6 34.134v-17.068l-153.6-34.133zm-85.333 34.134v-170.667h85.333c9.425 1.884 18.597-4.23 20.481-13.653 1.883-9.425-4.229-18.596-13.654-20.481l-102.401-34.133c-4.45-2.001-9.543-2.001-13.994 0l-102.4 34.133c-9.424 1.885-15.537 11.056-13.653 20.481s11.056 15.537 20.479 13.653h85.676v170.667h-68.267l-68.267 238.932h307.2l-68.266-238.932z"/></svg>

<svg viewBox="0 0 512 512" xmlns="http://www.w3.org/2000/svg"><path d="M 153.6 222.301 L 0 256.435 L 0 239.367 L 153.6 205.234 L 153.6 222.301 Z M 153.6 136.967 L 0 102.834 L 0 119.901 L 153.6 154.034 L 153.6 136.967 Z M 358.4 136.967 L 358.4 154.034 L 512 119.901 L 512 102.834 L 358.4 136.967 Z M 358.4 222.301 L 512 256.435 L 512 239.367 L 358.4 205.234 L 358.4 222.301 Z M 273.067 256.435 L 273.067 85.768 L 358.4 85.768 C 367.825 87.652 376.997 81.538 378.881 72.115 C 380.764 62.69 374.652 53.519 365.227 51.634 L 262.826 17.501 C 258.376 15.5 253.283 15.5 248.832 17.501 L 146.432 51.634 C 137.008 53.519 130.895 62.69 132.779 72.115 C 134.663 81.54 143.835 87.652 153.258 85.768 L 238.934 85.768 L 238.934 256.435 L 170.667 256.435 L 102.4 495.367 L 409.6 495.367 L 341.334 256.435 L 273.067 256.435 Z"/></svg>
